static/img/kroki/f216f125a81081ab63d0ec065cf7db47.svg

<?xml version="1.0" encoding="us-ascii" standalone="no"?><svg xmlns="http://www.w3.org/2000/svg" xmlns:xlink="http://www.w3.org/1999/xlink" contentStyleType="text/css" height="252px" preserveAspectRatio="none" style="width:544px;height:252px;" version="1.1" viewBox="0 0 544 252" width="544px" zoomAndPan="magnify"><defs/><g><!--class kubernetes_controller_revision--><g id="elem_kubernetes_controller_revision"><rect codeLine="22" fill="#3D176E" height="39.7891" id="kubernetes_controller_revision" rx="2.5" ry="2.5" style="stroke:#000D19;stroke-width:0.5;" width="300" x="7" y="206.58"/><ellipse cx="22" cy="226.4745" fill="#ADD1B2" rx="11" ry="11" style="stroke:#181818;stroke-width:1.0;"/><path d="M24.9688,232.1152 Q24.3906,232.412 23.75,232.5527 Q23.1094,232.7089 22.4063,232.7089 Q19.9063,232.7089 18.5781,231.0683 Q17.2656,229.412 17.2656,226.287 Q17.2656,223.162 18.5781,221.5058 Q19.9063,219.8495 22.4063,219.8495 Q23.1094,219.8495 23.75,220.0058 Q24.4063,220.162 24.9688,220.4589 L24.9688,223.1777 Q24.3438,222.5995 23.75,222.3339 Q23.1563,222.0527 22.5313,222.0527 Q21.1875,222.0527 20.5,223.1308 Q19.8125,224.1933 19.8125,226.287 Q19.8125,228.3808 20.5,229.4589 Q21.1875,230.5214 22.5313,230.5214 Q23.1563,230.5214 23.75,230.2558 Q24.3438,229.9745 24.9688,229.3964 L24.9688,232.1152 Z " fill="#000000"/><text fill="#D9B8FF" font-family="Helvetica" font-size="17" lengthAdjust="spacing" textLength="258" x="41" y="232.3598">kubernetes_controller_revision</text></g><!--class kubernetes_daemon_set--><g id="elem_kubernetes_daemon_set"><rect codeLine="24" fill="#3D176E" height="39.7891" id="kubernetes_daemon_set" rx="2.5" ry="2.5" style="stroke:#000D19;stroke-width:0.5;" width="247" x="170.5" y="106.79"/><ellipse cx="185.5" cy="126.6845" fill="#ADD1B2" rx="11" ry="11" style="stroke:#181818;stroke-width:1.0;"/><path d="M188.4688,132.3252 Q187.8906,132.622 187.25,132.7627 Q186.6094,132.9189 185.9063,132.9189 Q183.4063,132.9189 182.0781,131.2783 Q180.7656,129.622 180.7656,126.497 Q180.7656,123.372 182.0781,121.7158 Q183.4063,120.0595 185.9063,120.0595 Q186.6094,120.0595 187.25,120.2158 Q187.9063,120.372 188.4688,120.6689 L188.4688,123.3877 Q187.8438,122.8095 187.25,122.5439 Q186.6563,122.2627 186.0313,122.2627 Q184.6875,122.2627 184,123.3408 Q183.3125,124.4033 183.3125,126.497 Q183.3125,128.5908 184,129.6689 Q184.6875,130.7314 186.0313,130.7314 Q186.6563,130.7314 187.25,130.4658 Q187.8438,130.1845 188.4688,129.6064 L188.4688,132.3252 Z " fill="#000000"/><text fill="#D9B8FF" font-family="Helvetica" font-size="17" lengthAdjust="spacing" textLength="205" x="204.5" y="132.5698">kubernetes_daemon_set</text></g><!--class kubernetes_namespace--><g id="elem_kubernetes_namespace"><rect codeLine="26" fill="#3D176E" height="39.7891" id="kubernetes_namespace" rx="2.5" ry="2.5" style="stroke:#000D19;stroke-width:0.5;" width="239" x="174.5" y="7"/><ellipse cx="189.5" cy="26.8945" fill="#ADD1B2" rx="11" ry="11" style="stroke:#181818;stroke-width:1.0;"/><path d="M192.4688,32.5352 Q191.8906,32.832 191.25,32.9727 Q190.6094,33.1289 189.9063,33.1289 Q187.4063,33.1289 186.0781,31.4883 Q184.7656,29.832 184.7656,26.707 Q184.7656,23.582 186.0781,21.9258 Q187.4063,20.2695 189.9063,20.2695 Q190.6094,20.2695 191.25,20.4258 Q191.9063,20.582 192.4688,20.8789 L192.4688,23.5977 Q191.8438,23.0195 191.25,22.7539 Q190.6563,22.4727 190.0313,22.4727 Q188.6875,22.4727 188,23.5508 Q187.3125,24.6133 187.3125,26.707 Q187.3125,28.8008 188,29.8789 Q188.6875,30.9414 190.0313,30.9414 Q190.6563,30.9414 191.25,30.6758 Q191.8438,30.3945 192.4688,29.8164 L192.4688,32.5352 Z " fill="#000000"/><text fill="#D9B8FF" font-family="Helvetica" font-size="17" lengthAdjust="spacing" textLength="197" x="208.5" y="32.7798">kubernetes_namespace</text></g><!--class kubernetes_pod--><g id="elem_kubernetes_pod"><rect codeLine="28" fill="#3D176E" height="39.7891" id="kubernetes_pod" rx="2.5" ry="2.5" style="stroke:#000D19;stroke-width:0.5;" width="175" x="362.5" y="206.58"/><ellipse cx="377.5" cy="226.4745" fill="#ADD1B2" rx="11" ry="11" style="stroke:#181818;stroke-width:1.0;"/><path d="M380.4688,232.1152 Q379.8906,232.412 379.25,232.5527 Q378.6094,232.7089 377.9063,232.7089 Q375.4063,232.7089 374.0781,231.0683 Q372.7656,229.412 372.7656,226.287 Q372.7656,223.162 374.0781,221.5058 Q375.4063,219.8495 377.9063,219.8495 Q378.6094,219.8495 379.25,220.0058 Q379.9063,220.162 380.4688,220.4589 L380.4688,223.1777 Q379.8438,222.5995 379.25,222.3339 Q378.6563,222.0527 378.0313,222.0527 Q376.6875,222.0527 376,223.1308 Q375.3125,224.1933 375.3125,226.287 Q375.3125,228.3808 376,229.4589 Q376.6875,230.5214 378.0313,230.5214 Q378.6563,230.5214 379.25,230.2558 Q379.8438,229.9745 380.4688,229.3964 L380.4688,232.1152 Z " fill="#000000"/><text fill="#D9B8FF" font-family="Helvetica" font-size="17" lengthAdjust="spacing" textLength="133" x="396.5" y="232.3598">kubernetes_pod</text></g><!--link kubernetes_daemon_set to kubernetes_controller_revision--><g id="link_kubernetes_daemon_set_kubernetes_controller_revision"><path codeLine="30" d="M266.93,147.01 C244.42,163.08 212.33,185.98 188.63,202.9 " fill="none" id="kubernetes_daemon_set-to-kubernetes_controller_revision" style="stroke:#1A83AF;stroke-width:2.0;"/><polygon fill="#1A83AF" points="185.01,206.2,194.6566,204.2142,189.0758,203.2898,190.0002,197.709,185.01,206.2" style="stroke:#1A83AF;stroke-width:2.0;"/></g><!--link kubernetes_daemon_set to kubernetes_pod--><g id="link_kubernetes_daemon_set_kubernetes_pod"><path codeLine="31" d="M324.82,147.01 C350.57,163.15 387.3,186.17 414.32,203.11 " fill="none" id="kubernetes_daemon_set-to-kubernetes_pod" style="stroke:#1A83AF;stroke-width:2.0;"/><polygon fill="#1A83AF" points="418.24,206.2,412.7478,198.0247,414.0064,203.5397,408.4914,204.7984,418.24,206.2" style="stroke:#1A83AF;stroke-width:2.0;"/></g><!--link kubernetes_namespace to kubernetes_controller_revision--><g id="link_kubernetes_namespace_kubernetes_controller_revision"><path codeLine="32" d="M229.48,47.22 C200.74,59.41 169.67,78.36 153,106.79 C136.13,135.56 142.18,175.36 148.92,200.76 " fill="none" id="kubernetes_namespace-to-kubernetes_controller_revision" style="stroke:#1A83AF;stroke-width:2.0;"/><polygon fill="#1A83AF" points="150.45,205.27,151.8848,195.5262,149.1066,200.4538,144.179,197.6756,150.45,205.27" style="stroke:#1A83AF;stroke-width:2.0;"/></g><!--link kubernetes_namespace to kubernetes_daemon_set--><g id="link_kubernetes_namespace_kubernetes_daemon_set"><path codeLine="33" d="M294,47.22 C294,62.49 294,83.92 294,100.53 " fill="none" id="kubernetes_namespace-to-kubernetes_daemon_set" style="stroke:#1A83AF;stroke-width:2.0;"/><polygon fill="#1A83AF" points="294,105.41,298,96.41,294,100.41,290,96.41,294,105.41" style="stroke:#1A83AF;stroke-width:2.0;"/></g><!--link kubernetes_namespace to kubernetes_pod--><g id="link_kubernetes_namespace_kubernetes_pod"><path codeLine="34" d="M354.81,47.25 C383.76,59.64 416.1,78.77 435,106.79 C453.81,134.69 454.82,174.81 453.03,200.51 " fill="none" id="kubernetes_namespace-to-kubernetes_pod" style="stroke:#1A83AF;stroke-width:2.0;"/><polygon fill="#1A83AF" points="452.55,205.4,457.2815,196.7621,452.964,200.4172,449.309,196.0997,452.55,205.4" style="stroke:#1A83AF;stroke-width:2.0;"/></g><!--SRC=[dP9FQy904CNlVee5pu9fQDLB8HMalKYflPKYQtPMboGxONPKREbtxwhziqsYmLxt_VQzDyEiZ081HSaxKK2n078TbnbRIfA5I8XmEyOSINIrbZeULCK9Mcu5fh80SG_v1jYaiaeyhqoQMN1EN0NIdKop9U7QggCzaxJEIs0veCQvT2vX9hDOCmHbr6WnrBfALasxiOe6Dr33a1JG5zBlzrKqgYAjKMVd_Y5cvWr452vjYWorchM80tMsvPu8IjO6_TPFTdoKIXcx5DV1szEn4rcWF- -pbLIutTDQvYwCSGm4oBiInhMfO3HKUj08Fvo2q_tcHBRsXsg1mSrJFmDXdWFD2JR66RJYlVDH1vM40ktS0JVhrY_27rWApNA9wY0qE_PUkb4oZ9F9Q- -sfTs53ZwtqzZodv7j1h-bBlldctu2]--></g></svg>

<svg xmlns="http://www.w3.org/2000/svg" width="544" height="252" preserveAspectRatio="none" style="width:544px;height:252px"><rect width="300" height="39.789" x="7" y="206.58" fill="#3D176E" rx="2.5" ry="2.5" style="stroke:#000d19;stroke-width:.5"/><circle cx="22" cy="226.475" r="11" fill="#ADD1B2" style="stroke:#181818;stroke-width:1"/><path d="M24.969 232.115q-.578.297-1.219.438-.64.156-1.344.156-2.5 0-3.828-1.64-1.312-1.657-1.312-4.782t1.312-4.781q1.328-1.656 3.828-1.656.703 0 1.344.156.656.156 1.219.453v2.719q-.625-.578-1.219-.844-.594-.281-1.219-.281-1.343 0-2.031 1.078-.688 1.062-.688 3.156 0 2.094.688 3.172.688 1.062 2.031 1.062.625 0 1.219-.265.594-.281 1.219-.86v2.72Z"/><text x="41" y="232.36" fill="#D9B8FF" font-family="Helvetica" font-size="17" textLength="258">kubernetes_controller_revision</text><rect width="247" height="39.789" x="170.5" y="106.79" fill="#3D176E" rx="2.5" ry="2.5" style="stroke:#000d19;stroke-width:.5"/><circle cx="185.5" cy="126.684" r="11" fill="#ADD1B2" style="stroke:#181818;stroke-width:1"/><path d="M188.469 132.325q-.578.297-1.219.438-.64.156-1.344.156-2.5 0-3.828-1.64-1.312-1.657-1.312-4.782t1.312-4.781q1.328-1.656 3.828-1.656.703 0 1.344.156.656.156 1.219.453v2.719q-.625-.579-1.219-.844-.594-.281-1.219-.281-1.344 0-2.031 1.078-.688 1.062-.688 3.156 0 2.094.688 3.172.688 1.062 2.031 1.062.625 0 1.219-.265.594-.281 1.219-.86v2.72Z"/><text x="204.5" y="132.57" fill="#D9B8FF" font-family="Helvetica" font-size="17" textLength="205">kubernetes_daemon_set</text><rect width="239" height="39.789" x="174.5" y="7" fill="#3D176E" rx="2.5" ry="2.5" style="stroke:#000d19;stroke-width:.5"/><circle cx="189.5" cy="26.895" r="11" fill="#ADD1B2" style="stroke:#181818;stroke-width:1"/><path d="M192.469 32.535q-.578.297-1.219.438-.64.156-1.344.156-2.5 0-3.828-1.64-1.312-1.657-1.312-4.782t1.312-4.781q1.328-1.656 3.828-1.656.703 0 1.344.156.656.156 1.219.453v2.719q-.625-.578-1.219-.844-.594-.281-1.219-.281-1.344 0-2.031 1.078-.688 1.062-.688 3.156 0 2.094.688 3.172.688 1.062 2.031 1.062.625 0 1.219-.265.594-.281 1.219-.86v2.72Z"/><text x="208.5" y="32.78" fill="#D9B8FF" font-family="Helvetica" font-size="17" textLength="197">kubernetes_namespace</text><rect width="175" height="39.789" x="362.5" y="206.58" fill="#3D176E" rx="2.5" ry="2.5" style="stroke:#000d19;stroke-width:.5"/><circle cx="377.5" cy="226.475" r="11" fill="#ADD1B2" style="stroke:#181818;stroke-width:1"/><path d="M380.469 232.115q-.578.297-1.219.438-.64.156-1.344.156-2.5 0-3.828-1.64-1.312-1.657-1.312-4.782t1.312-4.781q1.328-1.656 3.828-1.656.703 0 1.344.156.656.156 1.219.453v2.719q-.625-.578-1.219-.844-.594-.281-1.219-.281-1.344 0-2.031 1.078-.688 1.062-.688 3.156 0 2.094.688 3.172.688 1.062 2.031 1.062.625 0 1.219-.265.594-.281 1.219-.86v2.72Z"/><text x="396.5" y="232.36" fill="#D9B8FF" font-family="Helvetica" font-size="17" textLength="133">kubernetes_pod</text><path fill="none" d="M266.93 147.01c-22.51 16.07-54.6 38.97-78.3 55.89" style="stroke:#1a83af;stroke-width:2"/><path fill="#1A83AF" d="m185.01 206.2 9.647-1.986-5.581-.924.924-5.581-4.99 8.491z" style="stroke:#1a83af;stroke-width:2"/><path fill="none" d="M324.82 147.01c25.75 16.14 62.48 39.16 89.5 56.1" style="stroke:#1a83af;stroke-width:2"/><path fill="#1A83AF" d="m418.24 206.2-5.492-8.175 1.258 5.515-5.515 1.258 9.749 1.402z" style="stroke:#1a83af;stroke-width:2"/><path fill="none" d="M229.48 47.22c-28.74 12.19-59.81 31.14-76.48 59.57-16.87 28.77-10.82 68.57-4.08 93.97" style="stroke:#1a83af;stroke-width:2"/><path fill="#1A83AF" d="m150.45 205.27 1.435-9.744-2.778 4.928-4.928-2.778 6.271 7.594z" style="stroke:#1a83af;stroke-width:2"/><path fill="none" d="M294 47.22v53.31" style="stroke:#1a83af;stroke-width:2"/><path fill="#1A83AF" d="m294 105.41 4-9-4 4-4-4 4 9z" style="stroke:#1a83af;stroke-width:2"/><path fill="none" d="M354.81 47.25c28.95 12.39 61.29 31.52 80.19 59.54 18.81 27.9 19.82 68.02 18.03 93.72" style="stroke:#1a83af;stroke-width:2"/><path fill="#1A83AF" d="m452.55 205.4 4.731-8.638-4.317 3.655-3.655-4.317 3.241 9.3z" style="stroke:#1a83af;stroke-width:2"/></svg>
